X:3515
T:Lament for the Death of the Rev. Archie Beaton
O:england
C:John Mason
S:loose sheet from fiddle club
M:4/4
L:1/8
K:G
Bc|d3d dcBA|G2 B2 D3 G|E2 GE D2 B,2|A6 Bc|
d3d dcBA|G2 B2 D3 G|E2 cA F3 D|G6:|]
B,A,|G,3 B, D3 D|B3 A G3 E|D2 GE D2 B,2|A,6 B,A,|
G,3 B, D3 D|B3 A G3 E|D2 GB, A,3 B,|G,6 B,A,|
G,B,DG Bdga|b3 a g3 e|d2 ga d3 B|a6 Bc|
d3d dcBA|G2 B2 D3 G|E2 cA FdCA,|G6|]


